X: 20
T: Fågelvalsen
R: waltz
C: Carmen Rodrigues
M: 3/4
L: 1/8
K: Ador
cB|: "Am"A3 cea | "D"f2 fe d2 | "Am"e2 cB AG| "Em"E4 cB |
"Am"A3 cea | "D"f2 fe d2 | "Am"e2 cB "G"GB |1 "Am"A4 cB:|2 "Am"A3 Bcd||
|: "C"c2 cB AG | "Em"E3 Bcd | "Am"c2 ag ec| "G"d3 Bcd |
"C"c2 cB AG | "Em"E4 D2 | "Am"C2 CB, "G"G,2 |1 "Am"A,3 Bcd:|2 "Am"A,4|]

